X: 84
T: The Otter's Holt
C: Martin 'Junior' Crehan
M: C|
L: 1/8
R: reel
K:Bmin
e |: "Bm"fBBA FEFB|"D"(3ABA FB ABde|"Bm"fBBA FEFA|BdcA Bcde|
"Bm"fBBA FEFB|"D"A2 FB ABde|faaf "A"egfe|1 "D" dBAF "Bm"~B3 e:||1 "D" dBAF "Bm"~B3 c||
|:"D"d2 fd Adfa|"Bm"bfaf "A"egfe|"D"(3ddd fd Adfa|"Bm"bfaf "A"e3f|
"D"d2fd Adfa|"Bm"bfaf "A"efde|"Bm"fBBA FEFA| (3Bcd cA B3c:|


